X:1
T:Polsk
T:(Totakt-pols, nr. JM-207)
S:efter J Mortensen
O:Svendborg amt, Danmark
R:Totakt-pols
Z:ABC-transkribering av Åke Persson
M:2/4
L:1/8
Q:1/4=108
K:D
A |: "D"FAAA | BAAA | FAAA | BAAA | d2 "A"e2 | "D"f/g/f/e/ df | "A"e/f/e/d/ ce |1 "D"d2 zA :|2 "D"d2 zd ||
|: "A"c2 d2 | e/f/e/d/ ce | gfed | cBAF | "G"Ge "D"Fd | "A"Ec "D"Df | "A"e/f/e/d/ ce |1 "D"d2 zd :|2 "D"d2 x2 |]

